src/icons/solid/symbols/zoom-in.svg

<svg width="24" height="24" viewBox="0 0 24 24" fill="none" xmlns="http://www.w3.org/2000/svg">
<g clip-path="url(#clip0_402_975)">
<path d="M9.96142 14.4662C9.78927 14.294 9.69255 14.0604 9.69255 13.8169V11.5215H7.39761C7.15415 11.5215 6.92065 11.4248 6.7485 11.2526C6.57635 11.0804 6.47963 10.8469 6.47963 10.6033C6.47963 10.3598 6.57635 10.1263 6.7485 9.9541C6.92065 9.78191 7.15415 9.68517 7.39761 9.68517H9.69255V7.38975C9.69255 7.14624 9.78927 6.9127 9.96142 6.74051C10.1336 6.56832 10.3671 6.47158 10.6105 6.47158C10.854 6.47158 11.0875 6.56832 11.2596 6.74051C11.4318 6.9127 11.5285 7.14624 11.5285 7.38975V9.68517H13.8235C14.0669 9.68517 14.3004 9.78191 14.4726 9.9541C14.6447 10.1263 14.7414 10.3598 14.7414 10.6033C14.7414 10.8469 14.6447 11.0804 14.4726 11.2526C14.3004 11.4248 14.0669 11.5215 13.8235 11.5215H11.5285V13.8169C11.5285 14.0604 11.4318 14.294 11.2596 14.4662C11.0875 14.6384 10.854 14.7351 10.6105 14.7351C10.3671 14.7351 10.1336 14.6384 9.96142 14.4662Z" fill="#212121"/>
<path fill-rule="evenodd" clip-rule="evenodd" d="M18.5969 16.0021L22.4615 19.8676C22.6322 20.0381 22.7677 20.2407 22.8601 20.4636C22.9524 20.6865 23 20.9255 23 21.1668C23 21.4081 22.9524 21.6471 22.8601 21.87C22.7677 22.0929 22.6322 22.2955 22.4615 22.466C22.1175 22.808 21.6522 23 21.1672 23C20.6822 23 20.2168 22.808 19.8728 22.466L15.999 18.6005C14.0159 19.938 11.6059 20.4886 9.23897 20.1451C6.87201 19.8016 4.71785 18.5885 3.19665 16.7425C1.67544 14.8965 0.896269 12.5499 1.0111 10.1604C1.12594 7.77094 2.12654 5.50992 3.81776 3.81835C5.50898 2.12678 7.76953 1.12596 10.1585 1.01111C12.5475 0.896247 14.8936 1.67558 16.7392 3.1971C18.5849 4.71863 19.7977 6.87323 20.1411 9.24068C20.4846 11.6081 19.934 14.0186 18.5969 16.0021ZM14.9455 4.11411C13.6623 3.25654 12.1537 2.79882 10.6104 2.79882C8.54175 2.80125 6.55849 3.62428 5.0957 5.08737C3.63292 6.55046 2.81006 8.53414 2.80763 10.6033C2.80763 12.1468 3.26525 13.6557 4.12264 14.9392C4.98002 16.2226 6.19866 17.2229 7.62443 17.8136C9.05021 18.4043 10.6191 18.5589 12.1327 18.2577C13.6463 17.9566 15.0366 17.2133 16.1279 16.1218C17.2191 15.0304 17.9623 13.6397 18.2633 12.1258C18.5644 10.6119 18.4099 9.04271 17.8193 7.61663C17.2287 6.19056 16.2286 4.97167 14.9455 4.11411Z" fill="#212121"/>
</g>
<defs>
<clipPath id="clip0_402_975">
<rect width="24" height="24" fill="white"/>
</clipPath>
</defs>
</svg>

<svg xmlns="http://www.w3.org/2000/svg" width="24" height="24" fill="none" viewBox="0 0 24 24"><g fill="currentColor" clip-path="url(#a)"><path d="M9.961 14.466a.92.92 0 0 1-.268-.65v-2.295H7.398a.918.918 0 1 1 0-1.836h2.295V7.39a.918.918 0 1 1 1.835 0v2.295h2.295a.918.918 0 0 1 0 1.836h-2.295v2.296a.918.918 0 0 1-1.567.65"/><path fill-rule="evenodd" d="m18.597 16.002 3.864 3.866a1.837 1.837 0 0 1 0 2.598 1.836 1.836 0 0 1-2.588 0L15.999 18.6a9.619 9.619 0 0 1-14.988-8.44 9.623 9.623 0 0 1 9.148-9.149 9.62 9.62 0 0 1 9.982 8.23 9.62 9.62 0 0 1-1.544 6.761M14.945 4.114A7.8 7.8 0 0 0 10.61 2.8a7.81 7.81 0 0 0-7.802 7.804 7.806 7.806 0 0 0 9.325 7.655 7.802 7.802 0 0 0 5.686-10.641 7.8 7.8 0 0 0-2.873-3.503" clip-rule="evenodd"/></g><defs><clipPath id="a"><path fill="currentColor" d="M0 0h24v24H0z"/></clipPath></defs></svg>
